X:11
T:Ann's Reel
R:reel
C:Bruce Osborne  --  Jan.5 1993
Z:abc by bosborne@kos.net
M:2/4
L:1/8
K:G
D/C/|B,/C/B,/^A,/ B,D|BG GB,/C/|D/E/D/C/ DG|F3 A,/B,/|\
C/B,/C/D/ F/G/F/^E/|F/G/F/^E/ F=E|D/E/D/C/ B,^A,|B,B,/B,/ B,C|\
D/E/D/C/ B,/^A,/B,/D/|BG GB,/A,/|G,G,/G,/ B,D|CC/C/ CD|\
F/G/F/E/ DE|[FA][F/A/][F/ A/] [FA][E A]|D/E/F/G/ AF|GG/G/ G2||\
B/c/B/A/ BG|B,/C/B,/^A,/ B,B,/C/|DB,/D/ GD|F3 A,/B,/|\
C/B,/C/D/ F/G/F/E/|F/G/F/E/ FE|D/E/D/C/ B,^A,|B,B,/B,/ B,D|\
B/c/B/A/ BG|B,/C/B,/^A,/ B,B,/=A,/|G,G,/G,/ A,B,|CC/C/ CD|\
F/G/F/E/ DE|[FA][F/A/][F/ A/] [FA][E A]|D/E/F/G/ AF|GG/G/ G2||
